X: 1948
T: Uncle Ned's Waltz
B: australian traditional tunes wiki
M:3/4
L:1/8
R: Waltz
Q: 1/4=100
K:D
V:1 
F2G2|:"D"A4f2|f4e2|d6|d2F2B2|"A7"A2G2E2|C2E2B2|"D"A2F2E2|D2F2G2|
"D"A4f2|f4e2|d6|d2F2B2|"D"A4d2|"A7"c2B2A2|G2F2A2|f4f2|
"A7"f2e2e2|"Em"B2e2e2|"D"e2d2d2|A2d2d2|"A7"c2B2A2|G2F2E2|"D"D6-|D4A,A,||
"D"A,2F2F2|F4A,A,|"A7"A,2G2G2|G4A,A,|"D"A,2A2A2|A4A2|"A7"B2A2G2|"D"F4A,A,|
"D"A,2F2F2|F4A,A,|"A7"A,2G2G2|G4A2|B4A2|B4A2|"D"D3DD2|D6||
% abcbook-tune_id 6342d5be65cf6059d65e1775


% abcbook-boost 0
% abcbook-tablature 
% abcbook-transpose 
% abcbook-lastupdated 1665324489650
% abcbook-soundfonts 
% abcbook-repeats 1
% NFF Book 2010

